icons/2_Variations/Bitso bg.var.svg

<svg xmlns="http://www.w3.org/2000/svg" width="1024" height="1024" fill="none">
   <g clip-path="url(#a)">
      <path fill="#98DC9A" d="M512 1024c282.77 0 512-229.23 512-512S794.77 0 512 0 0 229.23 0 512s229.23 512 512 512Z"/>
      <path fill="#fff" d="M553.721 610.651c0-5.8-4.35-8.7-8.7-8.7-8.7 0-20.31 1.45-29 1.45-49.32 0-89.94-40.62-89.94-89.94v-216.16a3.123 3.123 0 0 0-2.9-2.9h-123.33l-1.45 1.45v216.15a217.295 217.295 0 0 0 63.648 153.951 217.31 217.31 0 0 0 153.952 63.649c11.61 0 23.21-1.45 34.82-2.9a3.123 3.123 0 0 0 2.9-2.9v-113.15Zm-37.72-316.25c-11.61 0-24.66 1.45-36.27 2.9a3.117 3.117 0 0 0-2.9 2.9v113.15c0 5.8 4.35 10.15 8.7 8.7 4.35 0 29-1.45 29-1.45 49.32 0 89.94 40.62 89.94 89.94v195.85a1.413 1.413 0 0 0 1.45 1.45c75.46-33.37 127.68-108.84 127.68-195.84a217.325 217.325 0 0 0-63.649-153.952 217.314 217.314 0 0 0-153.951-63.648Z"/>
   </g>
   <defs>
      <clipPath id="a">
         <path fill="#fff" d="M0 0h1024v1024H0z"/>
      </clipPath>
   </defs>
</svg>

<svg width="1024" height="1024" viewBox="0 0 1024 1024" fill="none" xmlns="http://www.w3.org/2000/svg">
<g clip-path="url(#clip0_3_26)">
<path d="M512 1024C794.77 1024 1024 794.77 1024 512C1024 229.23 794.77 0 512 0C229.23 0 0 229.23 0 512C0 794.77 229.23 1024 512 1024Z" fill="#98DC9A"/>
<path d="M553.721 610.651C553.721 604.851 549.371 601.951 545.021 601.951C536.321 601.951 524.711 603.401 516.021 603.401C466.701 603.401 426.081 562.781 426.081 513.461V297.301C426.029 296.548 425.707 295.84 425.174 295.307C424.641 294.774 423.933 294.452 423.181 294.401H299.851L298.401 295.851V512.001C298.362 540.587 303.965 568.9 314.887 595.318C325.809 621.735 341.835 645.738 362.049 665.952C382.263 686.166 406.266 702.193 432.684 713.115C459.101 724.036 487.414 729.639 516.001 729.601C527.611 729.601 539.211 728.151 550.821 726.701C551.573 726.649 552.281 726.327 552.814 725.794C553.347 725.261 553.669 724.553 553.721 723.801V610.651ZM516.001 294.401C504.391 294.401 491.341 295.851 479.731 297.301C478.978 297.352 478.27 297.674 477.737 298.207C477.204 298.74 476.882 299.448 476.831 300.201V413.351C476.831 419.151 481.181 423.501 485.531 422.051C489.881 422.051 514.531 420.601 514.531 420.601C563.851 420.601 604.471 461.221 604.471 510.541V706.391C604.466 706.582 604.501 706.773 604.573 706.95C604.644 707.128 604.751 707.29 604.886 707.425C605.022 707.56 605.183 707.667 605.361 707.739C605.539 707.81 605.729 707.845 605.921 707.841C681.381 674.471 733.601 599.001 733.601 512.001C733.639 483.414 728.036 455.101 717.115 428.684C706.193 402.266 690.166 378.263 669.952 358.049C649.738 337.835 625.735 321.809 599.318 310.887C572.9 299.965 544.587 294.362 516.001 294.401Z" fill="white"/>
</g>
<defs>
<clipPath id="clip0_3_26">
<rect width="1024" height="1024" fill="white"/>
</clipPath>
</defs>
</svg>
